X: 7504
T:the New-Rigged Ship (reel)
R:Reel
O:Shetland
M:4/4
K:AMix
a2ab ageg|a2ab agef|g2gg fgag|f2d2 d2dd|\
a2ab ageg|a2ab agef|
g2A2 efed|c2A2 A2::\
ed|\
cAcA B2ed|cAcA E2ed|cece B2ed|c2A2 A2::
K:ADor
AB|\
cdec BcdB|ABAF GFE2|cdec BcdB|c2A2 A2:|
